Numix/scalable/places/old/folder-download-symbolic.svg

<?xml version="1.0" encoding="UTF-8" standalone="no"?>
<svg
   xmlns:dc="http://purl.org/dc/elements/1.1/"
   xmlns:cc="http://creativecommons.org/ns#"
   xmlns:rdf="http://www.w3.org/1999/02/22-rdf-syntax-ns#"
   xmlns:svg="http://www.w3.org/2000/svg"
   xmlns="http://www.w3.org/2000/svg"
   xmlns:sodipodi="http://sodipodi.sourceforge.net/DTD/sodipodi-0.dtd"
   xmlns:inkscape="http://www.inkscape.org/namespaces/inkscape"
   viewBox="0 0 16 16"
   id="svg203"
   version="1.1"
   inkscape:version="0.91 r"
   sodipodi:docname="folder-download-symbolic.svg">
  <metadata
     id="metadata211">
    <rdf:RDF>
      <cc:Work
         rdf:about="">
        <dc:format>image/svg+xml</dc:format>
        <dc:type
           rdf:resource="http://purl.org/dc/dcmitype/StillImage" />
      </cc:Work>
    </rdf:RDF>
  </metadata>
  <defs
     id="defs209" />
  <sodipodi:namedview
     pagecolor="#ffffff"
     bordercolor="#666666"
     borderopacity="1"
     objecttolerance="10"
     gridtolerance="10"
     guidetolerance="10"
     inkscape:pageopacity="0"
     inkscape:pageshadow="2"
     inkscape:window-width="640"
     inkscape:window-height="480"
     id="namedview207" />
  <path
     style="fill:#bebebe;line-height:normal;color:#000"
     d="m 8.0748738,15.994168 c 0.3606425,-0.02586 0.7103363,-0.18331 0.9682497,-0.435955 L 13.530211,10.80018 c 0.285173,-0.274953 0.457065,-0.663396 0.468508,-1.0587481 0.02663,-0.6198393 -0.364421,-1.2366326 -0.937432,-1.4785875 -0.57301,-0.2419548 -1.289444,-0.092799 -1.717446,0.3575601 L 8.0035879,12.01135 4.4993903,8.4684009 C 3.911451,7.9888253 2.9586138,8.0396389 2.4253425,8.579007 1.8920711,9.1183752 1.8548181,10.068971 2.344254,10.648176 l 4.5124989,4.910037 c 0.3169751,0.31175 0.7746422,0.475544 1.2181209,0.435955 z M 11.135791,7.0528663 c 0.508178,-0.059345 0.927162,-0.549085 0.905782,-1.0587481 l 0,-2.5534512 c -4.75e-4,-0.5377527 -0.491337,-1.026703 -1.030717,-1.026703 -0.53938,0 -1.0302417,0.4889503 -1.0307167,1.026703 l 0,2.5534512 c -0.020011,0.5595632 0.5006947,1.0786975 1.0619507,1.0587481 0.03121,0.00142 0.06249,0.00142 0.0937,0 z M 8.0944612,7.2555379 C 8.6135492,7.2108549 9.0516413,6.7158482 9.031477,6.1967898 l 0,-5.1691817 C 9.031477,0.48955341 8.5404419,-1.5516164e-7 8.0007594,-1.5516164e-7 7.461077,-1.5516164e-7 6.9700419,0.48955341 6.9700419,1.0276081 l 0,5.1691817 c -0.019289,0.5489803 0.4797461,1.0615866 1.0307177,1.0587481 0.031212,0.00142 0.06249,0.00142 0.093702,0 z M 5.0843635,7.0528663 C 5.5925412,6.9935213 6.0115249,6.5037813 5.9901454,5.9941182 l 0,-3.643339 C 6.0756869,1.7715609 5.5622794,1.1788191 4.975045,1.1788191 c -0.5872345,0 -1.100642,0.5927418 -1.0151005,1.1719601 l 0,3.643339 c -0.023169,0.5817025 0.5432312,1.1150224 1.124419,1.0587481 z"
     id="path205" />
</svg>

<svg xmlns="http://www.w3.org/2000/svg" viewBox="0 0 16 16">
 <path d="m 8.07 15.994 c 0.361 -0.026 0.71 -0.183 0.968 -0.436 l 4.487 -4.758 c 0.285 -0.275 0.457 -0.663 0.469 -1.059 0.027 -0.62 -0.364 -1.237 -0.937 -1.479 -0.573 -0.242 -1.289 -0.093 -1.717 0.358 l -3.34 3.391 -3.504 -3.543 c -0.588 -0.48 -1.541 -0.429 -2.074 0.111 -0.533 0.539 -0.571 1.49 -0.081 2.069 l 4.512 4.91 c 0.317 0.312 0.775 0.476 1.218 0.436 z m 3.061 -8.941 c 0.508 -0.059 0.927 -0.549 0.906 -1.059 l 0 -2.553 c 0 -0.538 -0.491 -1.027 -1.031 -1.027 -0.539 0 -1.03 0.489 -1.031 1.027 l 0 2.553 c -0.02 0.56 0.501 1.079 1.062 1.059 0.031 0.001 0.062 0.001 0.094 0 z m -3.041 0.203 c 0.519 -0.045 0.957 -0.54 0.937 -1.059 l 0 -5.169 c 0 -0.538 -0.491 -1.028 -1.031 -1.028 -0.54 0 -1.031 0.49 -1.031 1.028 l 0 5.169 c -0.019 0.549 0.48 1.062 1.031 1.059 0.031 0.001 0.062 0.001 0.094 0 z m -3.01 -0.203 c 0.508 -0.059 0.927 -0.549 0.906 -1.059 l 0 -3.643 c 0.086 -0.579 -0.428 -1.172 -1.015 -1.172 c -0.587 0 -1.101 0.593 -1.015 1.172 l 0 3.643 c -0.023 0.582 0.543 1.115 1.124 1.059 z" style="fill:#bebebe;color:#000"/>
</svg>
